assets/1. 1-F/Fast-forward button/Color/Fast-forward.Button-color.svg

<svg width="100%" height="100%" viewBox="0 0 32 32" fill="none" xmlns="http://www.w3.org/2000/svg">
<g filter="url(#filter0_ii_18590_1377)">
<rect x="1.85529" y="2.0625" width="27.875" height="27.875" rx="3.6" fill="url(#paint0_linear_18590_1377)"/>
<rect x="1.85529" y="2.0625" width="27.875" height="27.875" rx="3.6" fill="url(#paint1_radial_18590_1377)"/>
</g>
<g filter="url(#filter1_f_18590_1377)">
<path d="M28.0428 4.5625V27.4375" stroke="url(#paint2_linear_18590_1377)" stroke-width="1.5" stroke-linecap="round"/>
</g>
<g filter="url(#filter2_f_18590_1377)">
<path d="M5.31915 3.875H27.1004" stroke="url(#paint3_linear_18590_1377)" stroke-width="1.5" stroke-linecap="round"/>
</g>
<g filter="url(#filter3_f_18590_1377)">
<path d="M16.1412 17.1972C16.1412 17.1091 16.0354 17.064 15.9718 17.1252L9.83455 23.0308C9.19925 23.6421 8.14117 23.1919 8.14117 22.3102V9.68974C8.14117 8.80808 9.19925 8.35784 9.83455 8.96916L15.9718 14.8748C16.0354 14.9359 16.1412 14.8909 16.1412 14.8027V9.68974C16.1412 8.80808 17.1992 8.35784 17.8346 8.96916L24.3923 15.2794C24.8012 15.6728 24.8012 16.3271 24.3923 16.7205L17.8346 23.0308C17.1992 23.6421 16.1412 23.1919 16.1412 22.3102V17.1972Z" fill="#579FFF"/>
</g>
<g filter="url(#filter4_ii_18590_1377)">
<path d="M15.7206 17.1972C15.7206 17.1091 15.6148 17.064 15.5513 17.1252L9.41402 23.0308C8.77871 23.6421 7.72064 23.1919 7.72064 22.3102V9.68974C7.72064 8.80808 8.77871 8.35784 9.41402 8.96916L15.5513 14.8748C15.6148 14.9359 15.7206 14.8909 15.7206 14.8027V9.68974C15.7206 8.80808 16.7787 8.35784 17.414 8.96916L23.9718 15.2794C24.3806 15.6728 24.3806 16.3271 23.9718 16.7205L17.414 23.0308C16.7787 23.6421 15.7206 23.1919 15.7206 22.3102V17.1972Z" fill="#FCF2FF"/>
</g>
<defs>
<filter id="filter0_ii_18590_1377" x="1.85529" y="1.0625" width="28.875" height="28.875" filterUnits="userSpaceOnUse" color-interpolation-filters="sRGB">
<feFlood flood-opacity="0" result="BackgroundImageFix"/>
<feBlend mode="normal" in="SourceGraphic" in2="BackgroundImageFix" result="shape"/>
<feColorMatrix in="SourceAlpha" type="matrix" values="0 0 0 0 0 0 0 0 0 0 0 0 0 0 0 0 0 0 127 0" result="hardAlpha"/>
<feOffset dx="1" dy="-1"/>
<feGaussianBlur stdDeviation="1.5"/>
<feComposite in2="hardAlpha" operator="arithmetic" k2="-1" k3="1"/>
<feColorMatrix type="matrix" values="0 0 0 0 0.188235 0 0 0 0 0.470588 0 0 0 0 0.843137 0 0 0 1 0"/>
<feBlend mode="normal" in2="shape" result="effect1_innerShadow_18590_1377"/>
<feColorMatrix in="SourceAlpha" type="matrix" values="0 0 0 0 0 0 0 0 0 0 0 0 0 0 0 0 0 0 127 0" result="hardAlpha"/>
<feOffset dy="-1"/>
<feGaussianBlur stdDeviation="1.5"/>
<feComposite in2="hardAlpha" operator="arithmetic" k2="-1" k3="1"/>
<feColorMatrix type="matrix" values="0 0 0 0 0.27451 0 0 0 0 0.34902 0 0 0 0 0.8 0 0 0 1 0"/>
<feBlend mode="normal" in2="effect1_innerShadow_18590_1377" result="effect2_innerShadow_18590_1377"/>
</filter>
<filter id="filter1_f_18590_1377" x="25.2928" y="1.8125" width="5.5" height="28.375" filterUnits="userSpaceOnUse" color-interpolation-filters="sRGB">
<feFlood flood-opacity="0" result="BackgroundImageFix"/>
<feBlend mode="normal" in="SourceGraphic" in2="BackgroundImageFix" result="shape"/>
<feGaussianBlur stdDeviation="1" result="effect1_foregroundBlur_18590_1377"/>
</filter>
<filter id="filter2_f_18590_1377" x="2.56915" y="1.125" width="27.2812" height="5.5" filterUnits="userSpaceOnUse" color-interpolation-filters="sRGB">
<feFlood flood-opacity="0" result="BackgroundImageFix"/>
<feBlend mode="normal" in="SourceGraphic" in2="BackgroundImageFix" result="shape"/>
<feGaussianBlur stdDeviation="1" result="effect1_foregroundBlur_18590_1377"/>
</filter>
<filter id="filter3_f_18590_1377" x="7.14117" y="7.68774" width="18.5578" height="16.6244" filterUnits="userSpaceOnUse" color-interpolation-filters="sRGB">
<feFlood flood-opacity="0" result="BackgroundImageFix"/>
<feBlend mode="normal" in="SourceGraphic" in2="BackgroundImageFix" result="shape"/>
<feGaussianBlur stdDeviation="0.5" result="effect1_foregroundBlur_18590_1377"/>
</filter>
<filter id="filter4_ii_18590_1377" x="6.72064" y="8.28774" width="17.9578" height="16.0244" filterUnits="userSpaceOnUse" color-interpolation-filters="sRGB">
<feFlood flood-opacity="0" result="BackgroundImageFix"/>
<feBlend mode="normal" in="SourceGraphic" in2="BackgroundImageFix" result="shape"/>
<feColorMatrix in="SourceAlpha" type="matrix" values="0 0 0 0 0 0 0 0 0 0 0 0 0 0 0 0 0 0 127 0" result="hardAlpha"/>
<feOffset dx="-1" dy="1"/>
<feGaussianBlur stdDeviation="1"/>
<feComposite in2="hardAlpha" operator="arithmetic" k2="-1" k3="1"/>
<feColorMatrix type="matrix" values="0 0 0 0 0.866667 0 0 0 0 0.819608 0 0 0 0 0.941176 0 0 0 1 0"/>
<feBlend mode="normal" in2="shape" result="effect1_innerShadow_18590_1377"/>
<feColorMatrix in="SourceAlpha" type="matrix" values="0 0 0 0 0 0 0 0 0 0 0 0 0 0 0 0 0 0 127 0" result="hardAlpha"/>
<feOffset dx="0.4" dy="-0.4"/>
<feGaussianBlur stdDeviation="0.5"/>
<feComposite in2="hardAlpha" operator="arithmetic" k2="-1" k3="1"/>
<feColorMatrix type="matrix" values="0 0 0 0 1 0 0 0 0 0.988235 0 0 0 0 1 0 0 0 1 0"/>
<feBlend mode="normal" in2="effect1_innerShadow_18590_1377" result="effect2_innerShadow_18590_1377"/>
</filter>
<linearGradient id="paint0_linear_18590_1377" x1="15.7928" y1="5.63701" x2="15.7928" y2="38.8897" gradientUnits="userSpaceOnUse">
<stop stop-color="#5CB7FF"/>
<stop offset="1" stop-color="#4878DD"/>
</linearGradient>
<radialGradient id="paint1_radial_18590_1377" cx="0" cy="0" r="1" gradientUnits="userSpaceOnUse" gradientTransform="translate(27.5115 4.15625) rotate(136.771) scale(2.14444 2.50466)">
<stop stop-color="#7BD7FF"/>
<stop offset="1" stop-color="#7BD7FF" stop-opacity="0"/>
</radialGradient>
<linearGradient id="paint2_linear_18590_1377" x1="28.5428" y1="4.5625" x2="28.5428" y2="27.4375" gradientUnits="userSpaceOnUse">
<stop stop-color="#7FD9FF"/>
<stop offset="1" stop-color="#639DF4"/>
</linearGradient>
<linearGradient id="paint3_linear_18590_1377" x1="28.2567" y1="4.12502" x2="2.7254" y2="4.12502" gradientUnits="userSpaceOnUse">
<stop stop-color="#7DD8FF"/>
<stop offset="1" stop-color="#5DB6FF"/>
</linearGradient>
</defs>
</svg>

<svg width="100%" height="100%" viewBox="0 0 32 32" xmlns="http://www.w3.org/2000/svg"><g filter="url(#a)"><rect width="27.875" height="27.875" x="1.855" y="2.063" fill="url(#b)" rx="3.6"/><rect width="27.875" height="27.875" x="1.855" y="2.063" fill="url(#c)" rx="3.6"/></g><g filter="url(#d)"><path stroke="url(#e)" stroke-linecap="round" stroke-width="1.5" d="M28.043 4.563v22.875"/></g><g filter="url(#f)"><path stroke="url(#g)" stroke-linecap="round" stroke-width="1.5" d="M5.32 3.875H27.1"/></g><g filter="url(#h)"><path fill="#579FFF" d="M16.141 17.197a.1.1 0 0 0-.17-.072l-6.136 5.906c-.636.611-1.694.16-1.694-.72V9.69c0-.882 1.058-1.332 1.694-.72l6.137 5.905a.1.1 0 0 0 .17-.072V9.69c0-.882 1.057-1.332 1.693-.72l6.557 6.31a1 1 0 0 1 0 1.44l-6.557 6.31c-.636.612-1.694.162-1.694-.72z"/></g><g filter="url(#i)"><path fill="#FCF2FF" d="M15.72 17.197a.1.1 0 0 0-.169-.072l-6.137 5.906c-.635.611-1.693.16-1.693-.72V9.69c0-.882 1.058-1.332 1.693-.72l6.137 5.905a.1.1 0 0 0 .17-.072V9.69c0-.882 1.058-1.332 1.693-.72l6.558 6.31a1 1 0 0 1 0 1.44l-6.558 6.31c-.635.612-1.693.162-1.693-.72z"/></g><defs><filter id="a" width="28.875" height="28.875" x="1.855" y="1.063" color-interpolation-filters="sRGB" filterUnits="userSpaceOnUse"><feFlood flood-opacity="0" result="BackgroundImageFix"/><feBlend in="SourceGraphic" in2="BackgroundImageFix" result="shape"/><feColorMatrix in="SourceAlpha" result="hardAlpha" values="0 0 0 0 0 0 0 0 0 0 0 0 0 0 0 0 0 0 127 0"/><feOffset dx="1" dy="-1"/><feGaussianBlur stdDeviation="1.5"/><feComposite in2="hardAlpha" k2="-1" k3="1" operator="arithmetic"/><feColorMatrix values="0 0 0 0 0.188235 0 0 0 0 0.470588 0 0 0 0 0.843137 0 0 0 1 0"/><feBlend in2="shape" result="effect1_innerShadow_18590_1377"/><feColorMatrix in="SourceAlpha" result="hardAlpha" values="0 0 0 0 0 0 0 0 0 0 0 0 0 0 0 0 0 0 127 0"/><feOffset dy="-1"/><feGaussianBlur stdDeviation="1.5"/><feComposite in2="hardAlpha" k2="-1" k3="1" operator="arithmetic"/><feColorMatrix values="0 0 0 0 0.27451 0 0 0 0 0.34902 0 0 0 0 0.8 0 0 0 1 0"/><feBlend in2="effect1_innerShadow_18590_1377" result="effect2_innerShadow_18590_1377"/></filter><filter id="d" width="5.5" height="28.375" x="25.293" y="1.813" color-interpolation-filters="sRGB" filterUnits="userSpaceOnUse"><feFlood flood-opacity="0" result="BackgroundImageFix"/><feBlend in="SourceGraphic" in2="BackgroundImageFix" result="shape"/><feGaussianBlur result="effect1_foregroundBlur_18590_1377" stdDeviation="1"/></filter><filter id="f" width="27.281" height="5.5" x="2.569" y="1.125" color-interpolation-filters="sRGB" filterUnits="userSpaceOnUse"><feFlood flood-opacity="0" result="BackgroundImageFix"/><feBlend in="SourceGraphic" in2="BackgroundImageFix" result="shape"/><feGaussianBlur result="effect1_foregroundBlur_18590_1377" stdDeviation="1"/></filter><filter id="h" width="18.558" height="16.624" x="7.141" y="7.688" color-interpolation-filters="sRGB" filterUnits="userSpaceOnUse"><feFlood flood-opacity="0" result="BackgroundImageFix"/><feBlend in="SourceGraphic" in2="BackgroundImageFix" result="shape"/><feGaussianBlur result="effect1_foregroundBlur_18590_1377" stdDeviation=".5"/></filter><filter id="i" width="17.958" height="16.024" x="6.721" y="8.288" color-interpolation-filters="sRGB" filterUnits="userSpaceOnUse"><feFlood flood-opacity="0" result="BackgroundImageFix"/><feBlend in="SourceGraphic" in2="BackgroundImageFix" result="shape"/><feColorMatrix in="SourceAlpha" result="hardAlpha" values="0 0 0 0 0 0 0 0 0 0 0 0 0 0 0 0 0 0 127 0"/><feOffset dx="-1" dy="1"/><feGaussianBlur stdDeviation="1"/><feComposite in2="hardAlpha" k2="-1" k3="1" operator="arithmetic"/><feColorMatrix values="0 0 0 0 0.866667 0 0 0 0 0.819608 0 0 0 0 0.941176 0 0 0 1 0"/><feBlend in2="shape" result="effect1_innerShadow_18590_1377"/><feColorMatrix in="SourceAlpha" result="hardAlpha" values="0 0 0 0 0 0 0 0 0 0 0 0 0 0 0 0 0 0 127 0"/><feOffset dx=".4" dy="-.4"/><feGaussianBlur stdDeviation=".5"/><feComposite in2="hardAlpha" k2="-1" k3="1" operator="arithmetic"/><feColorMatrix values="0 0 0 0 1 0 0 0 0 0.988235 0 0 0 0 1 0 0 0 1 0"/><feBlend in2="effect1_innerShadow_18590_1377" result="effect2_innerShadow_18590_1377"/></filter><linearGradient id="b" x1="15.793" x2="15.793" y1="5.637" y2="38.89" gradientUnits="userSpaceOnUse"><stop stop-color="#5CB7FF"/><stop offset="1" stop-color="#4878DD"/></linearGradient><linearGradient id="e" x1="28.543" x2="28.543" y1="4.563" y2="27.438" gradientUnits="userSpaceOnUse"><stop stop-color="#7FD9FF"/><stop offset="1" stop-color="#639DF4"/></linearGradient><linearGradient id="g" x1="28.257" x2="2.725" y1="4.125" y2="4.125" gradientUnits="userSpaceOnUse"><stop stop-color="#7DD8FF"/><stop offset="1" stop-color="#5DB6FF"/></linearGradient><radialGradient id="c" cx="0" cy="0" r="1" gradientTransform="matrix(-1.56249 1.46876 -1.71548 -1.82495 27.512 4.156)" gradientUnits="userSpaceOnUse"><stop stop-color="#7BD7FF"/><stop offset="1" stop-color="#7BD7FF" stop-opacity="0"/></radialGradient></defs></svg>
